X:1
T:[ID 11-30c]
T:[ID 11-30c]
T:Bezeichnung standardisiert: Eccosaise Nr 19 Cosaise
T:Urheber unbekannt Datum in der hier transkribierten schriftlichen Quelle: vermutlich um 1800
C:Urheber unbekannt
C:Datum in der hier transkribierten schriftlichen Quelle: vermutlich um 1800
L:1/8
M:2/4
K:G
V:1 treble 
V:1
 GBdB | cege | dgdc | GBdB | cege | efaf | gg g z :: B,DGD | B,DGD | A,DFC | ADFD | A,DFD | B,DGD | %13
 A,DFD | GG G z :| %15

